src/assets/filled/DocumentDownload.svg

<svg width="24" height="24" viewBox="0 0 24 24"  xmlns="http://www.w3.org/2000/svg">
<path d="M20.5 10.19H17.61C15.24 10.19 13.31 8.26 13.31 5.89V3C13.31 2.45 12.86 2 12.31 2H8.07C4.99 2 2.5 4 2.5 7.57V16.43C2.5 20 4.99 22 8.07 22H15.93C19.01 22 21.5 20 21.5 16.43V11.19C21.5 10.64 21.05 10.19 20.5 10.19ZM12.28 15.78L10.28 17.78C10.21 17.85 10.12 17.91 10.03 17.94C9.94 17.98 9.85 18 9.75 18C9.65 18 9.56 17.98 9.47 17.94C9.39 17.91 9.31 17.85 9.25 17.79C9.24 17.78 9.23 17.78 9.23 17.77L7.23 15.77C6.94 15.48 6.94 15 7.23 14.71C7.52 14.42 8 14.42 8.29 14.71L9 15.44V11.25C9 10.84 9.34 10.5 9.75 10.5C10.16 10.5 10.5 10.84 10.5 11.25V15.44L11.22 14.72C11.51 14.43 11.99 14.43 12.28 14.72C12.57 15.01 12.57 15.49 12.28 15.78Z" />
<path d="M17.4299 8.81048C18.3799 8.82048 19.6999 8.82048 20.8299 8.82048C21.3999 8.82048 21.6999 8.15048 21.2999 7.75048C19.8599 6.30048 17.2799 3.69048 15.7999 2.21048C15.3899 1.80048 14.6799 2.08048 14.6799 2.65048V6.14048C14.6799 7.60048 15.9199 8.81048 17.4299 8.81048Z" />
</svg>

<?xml version="1.0" encoding="UTF-8"?>
<svg width="24" height="24" viewBox="0 0 24 24" xmlns="http://www.w3.org/2000/svg">
 <path d="m20.5 10.19h-2.89c-2.37 0-4.3-1.93-4.3-4.3v-2.89c0-0.55-0.45-1-1-1h-4.24c-3.08 0-5.57 2-5.57 5.57v8.86c0 3.57 2.49 5.57 5.57 5.57h7.86c3.08 0 5.57-2 5.57-5.57v-5.24c0-0.55-0.45-1-1-1zm-8.22 5.59-2 2c-0.07 0.07-0.16 0.13-0.25 0.16-0.09 0.04-0.18 0.06-0.28 0.06s-0.19-0.02-0.28-0.06c-0.08-0.03-0.16-0.09-0.22-0.15-0.01-0.01-0.02-0.01-0.02-0.02l-2-2c-0.29-0.29-0.29-0.77 0-1.06s0.77-0.29 1.06 0l0.71 0.73v-4.19c0-0.41 0.34-0.75 0.75-0.75s0.75 0.34 0.75 0.75v4.19l0.72-0.72c0.29-0.29 0.77-0.29 1.06 0s0.29 0.77 0 1.06z"/>
 <path d="m17.43 8.8105c0.95 0.01 2.27 0.01 3.4 0.01 0.57 0 0.87-0.67 0.47-1.07-1.44-1.45-4.02-4.06-5.5-5.54-0.41-0.41-1.12-0.13-1.12 0.44v3.49c0 1.46 1.24 2.67 2.75 2.67z"/>
</svg>
